X: 100280
T: "THE NEW CONQUEST" -- Contre Dance
R: march, reel
B: K\"ohler's Violin Repository, v.3, 1885 p.206 #1
F: http://www.archive.org/details/klersviolinrepos03rugg
Z: 2012 John Chambers <jc:trillian.mit.edu>
N: Missing bar line between bars 11, 12 added.
M: 2/4
L: 1/16
K: G
(ud/e/d/c/) !segno!|\
B2B2B2~c2 | d2d2g2e2 | d2(Bd) cBAG | F2A2A2 (d/e/d/c/) |
B2B2B2~c2 | dgfg agfe | d2(Bd) c2(Ac) | B2G2G2 :|
|: ud2 |\
~g2(bg) gfed | e2(ge) edcB | e2e2 d2B2 | c2A2A2d2 |
~g2(bg) gfed | e2(ge) edcB | A3G ABcd | B2G2G2 :|
d2 |\
gbag fagf | egfe dcBd | efgf edcB | c2A2 dcBA |
GABG ABcA | BcdB cdec | (dg)gg (fa)aa | gfed cBAG !segno!|]

%%sep 2 1 500

